build/img/vekt/logo-y.svg

<svg width="52" height="52" viewBox="0 0 52 52" fill="none" xmlns="http://www.w3.org/2000/svg">
<path d="M14.4082 18.4441C14.4082 18.4441 12.5449 19.5628 12.1296 21.4023C11.7144 23.2418 12.1296 25.2561 12.1296 25.2561C12.1296 25.2561 9.20752 26.4615 9.20752 30.2524C9.20752 34.0434 11.6725 35.1151 11.6725 35.1151C11.6725 35.1151 11.7014 39.5893 14.4595 42.0023C17.2177 44.4152 20.1116 44.4268 20.1116 44.4268C20.1116 44.4268 21.6167 47.6103 26.0447 47.6103C30.4726 47.6103 31.9785 44.4268 31.9785 44.4268C31.9785 44.4268 34.9757 43.9891 37.6306 42.0023C40.2855 40.0162 40.2125 35.1151 40.2125 35.1151C40.2125 35.1151 42.8826 34.0441 42.8826 30.2524C42.8826 26.4608 39.9597 25.2568 39.9597 25.2568C39.9597 25.2568 40.3765 23.2418 39.9597 21.4023C39.543 19.5628 37.6811 18.4441 37.6811 18.4441" fill="#B22EC8"/>
<path d="M40.0457 24.1425C40.0457 16.401 33.7696 14.2206 26.0289 14.2206C18.2881 14.2206 12.012 16.4017 12.012 24.1425C12.012 31.8832 18.2881 38.1594 26.0289 38.1594C33.7696 38.1594 40.0457 31.8832 40.0457 24.1425Z" fill="#B22EC8"/>
<path d="M26.4746 47.6002C26.4746 47.6002 30.2648 44.9497 30.0171 38.8534C31.6472 37.1576 32.1527 34.879 30.6722 32.11C33.1732 28.5451 32.9132 24.6885 29.9211 21.7649C31.1539 19.9853 30.5089 18.4441 29.1151 17.2864C29.1151 17.2864 33.127 19.2537 36.2001 16.4407C36.2001 16.4407 42.6589 21.0846 39.9599 25.2568C39.9599 25.2568 47.0912 30.0762 40.2127 35.1152C40.2127 35.1152 41.2173 42.796 32.1527 44.3957C32.1527 44.3957 29.7665 47.0968 26.4746 47.6002Z" fill="#6A107A"/>
<path d="M40.2856 8.13362C37.2017 22.5253 27.737 17.6186 26.4507 15.0879C25.1652 12.5565 26.4074 2.47935 40.2856 8.1329V8.13362Z" fill="#0F805D"/>
<path d="M11.804 8.13362C14.8878 22.5253 24.3526 17.6186 25.6388 15.0879C26.9244 12.5565 25.6822 2.47935 11.804 8.1329V8.13362Z" fill="#0F805D"/>
<path d="M40.2854 8.13362C37.2015 22.5253 27.7368 17.6186 26.4505 15.0879C25.1649 12.5565 26.4072 2.47935 40.2854 8.1329V8.13362Z" stroke="black" stroke-width="2" stroke-miterlimit="10" stroke-linecap="round" stroke-linejoin="round"/>
<path d="M32.9131 11.0456C30.6525 11.9137 27.7571 13.3098 26.4745 15.1298M11.804 8.13362C14.8878 22.5253 24.3526 17.6186 25.6388 15.0879C26.9244 12.5565 25.6822 2.47935 11.804 8.1329V8.13362Z" stroke="black" stroke-width="2" stroke-miterlimit="10" stroke-linecap="round" stroke-linejoin="round"/>
<path d="M19.1764 11.0457C21.4376 11.9138 24.3323 13.3098 25.615 15.1298M14.4082 18.4441C14.4082 18.4441 12.5449 19.5628 12.1296 21.4023C11.7144 23.2418 12.1296 25.2561 12.1296 25.2561C12.1296 25.2561 9.20752 26.4615 9.20752 30.2524C9.20752 34.0434 11.6725 35.1152 11.6725 35.1152C11.6725 35.1152 11.7014 39.5893 14.4595 42.0023C17.2177 44.4152 20.1116 44.4268 20.1116 44.4268C20.1116 44.4268 21.6167 47.6103 26.0447 47.6103C30.4726 47.6103 31.9785 44.4268 31.9785 44.4268C31.9785 44.4268 34.9757 43.9891 37.6306 42.0023C40.2855 40.0162 40.2125 35.1152 40.2125 35.1152C40.2125 35.1152 42.8826 34.0441 42.8826 30.2524C42.8826 26.4608 39.9597 25.2568 39.9597 25.2568C39.9597 25.2568 40.3765 23.2418 39.9597 21.4023C39.543 19.5628 37.6811 18.4441 37.6811 18.4441" stroke="black" stroke-width="2" stroke-miterlimit="10" stroke-linecap="round" stroke-linejoin="round"/>
<path d="M30.5087 21.2875C30.5087 21.2875 28.6194 23.2859 26.288 23.2859M21.9063 21.2875C21.9063 21.2875 23.7956 23.2859 26.127 23.2859M36.1558 28.5451C36.1558 30.6338 34.3632 32.3266 32.1525 32.3266M27.9954 28.5451C27.9954 30.6338 29.7879 32.3266 31.9986 32.3266M24.4709 28.5451C24.4709 30.6338 22.6784 32.3266 20.4669 32.3266M16.3098 28.5451C16.3098 30.6338 18.1024 32.3266 20.3138 32.3266M30.2646 38.9003C29.5106 39.9035 27.9824 40.5896 26.2194 40.5896M21.9128 38.7775C22.6314 39.8464 24.2116 40.5896 26.0454 40.5896M21.876 39.0361C21.876 39.9316 21.3206 40.7398 20.433 41.3068M30.3079 39.0361C30.3079 40.0133 30.9673 40.885 31.9986 41.4541" stroke="black" stroke-width="2" stroke-miterlimit="10" stroke-linecap="round" stroke-linejoin="round"/>
<path d="M16.9078 30.8187C16.9078 32.5274 15.7082 33.9712 14.0608 34.4399M18.0641 21.2622C18.0641 23.4975 16.2715 25.3103 14.0601 25.3103M33.4914 21.2622C33.4914 23.4975 35.284 25.3103 37.4954 25.3103M35.57 30.8187C35.57 32.4509 36.6649 33.8412 38.1989 34.372" stroke="black" stroke-width="2" stroke-miterlimit="10" stroke-linecap="round" stroke-linejoin="round"/>
</svg>

<svg width="52" height="52" fill="none" xmlns="http://www.w3.org/2000/svg"><path d="M14.408 18.444s-1.863 1.119-2.278 2.958c-.416 1.84 0 3.854 0 3.854s-2.922 1.206-2.922 4.996c0 3.791 2.464 4.863 2.464 4.863s.03 4.474 2.787 6.887c2.759 2.413 5.653 2.425 5.653 2.425s1.505 3.183 5.933 3.183 5.933-3.183 5.933-3.183 2.998-.438 5.653-2.425c2.654-1.986 2.581-6.887 2.581-6.887s2.67-1.07 2.67-4.863c0-3.791-2.922-4.995-2.922-4.995s.416-2.015 0-3.855c-.417-1.84-2.279-2.958-2.279-2.958" fill="#B22EC8"/><path d="M40.046 24.142c0-7.741-6.276-9.921-14.017-9.921-7.74 0-14.017 2.18-14.017 9.921S18.288 38.16 26.029 38.16c7.74 0 14.017-6.276 14.017-14.017Z" fill="#B22EC8"/><path d="M26.475 47.6s3.79-2.65 3.542-8.747c1.63-1.695 2.136-3.974.655-6.743 2.501-3.565 2.241-7.421-.75-10.345 1.232-1.78.587-3.32-.807-4.479 0 0 4.012 1.968 7.085-.845 0 0 6.459 4.644 3.76 8.816 0 0 7.131 4.82.253 9.858 0 0 1.004 7.681-8.06 9.28 0 0-2.386 2.702-5.678 3.205Z" fill="#6A107A"/><path d="M40.286 8.134c-3.084 14.391-12.549 9.485-13.835 6.954-1.286-2.531-.044-12.609 13.835-6.955Z" fill="#0F805D"/><path d="M11.804 8.134c3.084 14.391 12.549 9.485 13.835 6.954 1.285-2.531.043-12.609-13.835-6.955Z" fill="#0F805D"/><path d="M40.285 8.134c-3.083 14.391-12.548 9.485-13.834 6.954-1.286-2.531-.044-12.609 13.834-6.955v0Z" stroke="#000" stroke-width="2" stroke-miterlimit="10" stroke-linecap="round" stroke-linejoin="round"/><path d="M32.913 11.046c-2.26.868-5.156 2.264-6.438 4.084M11.803 8.134c3.084 14.391 12.549 9.485 13.835 6.954 1.285-2.531.043-12.609-13.835-6.955v0Z" stroke="#000" stroke-width="2" stroke-miterlimit="10" stroke-linecap="round" stroke-linejoin="round"/><path d="M19.176 11.046c2.262.868 5.156 2.264 6.439 4.084m-11.207 3.314s-1.863 1.119-2.278 2.958c-.416 1.84 0 3.854 0 3.854s-2.922 1.206-2.922 4.996c0 3.791 2.464 4.863 2.464 4.863s.03 4.474 2.787 6.887c2.759 2.413 5.653 2.425 5.653 2.425s1.505 3.183 5.933 3.183 5.933-3.183 5.933-3.183 2.998-.438 5.653-2.425c2.654-1.986 2.581-6.887 2.581-6.887s2.67-1.07 2.67-4.863c0-3.791-2.922-4.995-2.922-4.995s.416-2.015 0-3.855c-.417-1.84-2.279-2.958-2.279-2.958" stroke="#000" stroke-width="2" stroke-miterlimit="10" stroke-linecap="round" stroke-linejoin="round"/><path d="M30.509 21.288s-1.89 1.998-4.221 1.998m-4.382-1.998s1.89 1.998 4.221 1.998m10.029 5.26c0 2.088-1.793 3.78-4.003 3.78m-4.158-3.78c0 2.088 1.793 3.78 4.004 3.78m-7.528-3.78c0 2.088-1.793 3.78-4.004 3.78m-4.157-3.78c0 2.088 1.792 3.78 4.004 3.78m9.95 6.574c-.753 1.004-2.282 1.69-4.045 1.69m-4.306-1.813c.718 1.07 2.299 1.813 4.132 1.813m-4.169-1.554c0 .896-.555 1.704-1.443 2.27m9.875-2.27c0 .977.66 1.849 1.69 2.418" stroke="#000" stroke-width="2" stroke-miterlimit="10" stroke-linecap="round" stroke-linejoin="round"/><path d="M16.908 30.819c0 1.708-1.2 3.152-2.847 3.62m4.003-13.177c0 2.235-1.793 4.048-4.004 4.048m19.431-4.048c0 2.235 1.793 4.048 4.004 4.048M35.57 30.82c0 1.632 1.095 3.022 2.629 3.553" stroke="#000" stroke-width="2" stroke-miterlimit="10" stroke-linecap="round" stroke-linejoin="round"/></svg>
